!!!COM:	Anonymous
!!!OTL:	Sanctus Super iste puer magnus
!!!AGN:	Mass section; Sanctus
!!!SCT:	Ano1002
!!!SCA:	Ano1002
!!!SMS:	Munich 3154
!!!folio:	137v-141r
!!!voices:	4
**kern	**kern	**kern	**kern
*staff4	*staff3	*staff2	*staff1
*Ivox	*Ivox	*Ivox	*Ivox
*I"Bassus	*I"Tenor	*I"Altus	*I"Discantus
*I'B	*I'T	*I'A	*I'D
*>[A,B,C,D,C]	*>[A,B,C,D,C]	*>[A,B,C,D,C]	*>[A,B,C,D,C]
*>A	*>A	*>A	*>A
*clefF4	*clefGv2	*clefGv2	*clefG2
*k[]	*k[]	*k[]	*k[]
*M3/1	*M3/1	*M3/1	*M3/1
*met(O)	*met(O)	*met(O)	*met(O)
!!section: Sanctus
!!!OMD: Sanctus
=1-	=1-	=1-	=1-
0.r	0.r	0.G	1.g
.	.	.	4f
.	.	.	4e
.	.	.	2d
.	.	.	2g
=2	=2	=2	=2
[0.C	0.r	1.c	2e
.	.	.	2.c
.	.	.	4d
.	.	4B	4e
.	.	4A	4c
.	.	2G	[1g
.	.	[2c	.
=3	=3	=3	=3
0.C]	0.r	4c]	2g]
.	.	4d	.
.	.	4e	2a
.	.	4c	.
.	.	2g	2g
.	.	2a	1e
.	.	2g	.
.	.	2e	2cc
=4	=4	=4	=4
[0.D	0.r	1f	2b
.	.	.	1a
.	.	2d	.
.	.	4c	2.dd
.	.	4B	.
.	.	1A	.
.	.	.	4cc
.	.	.	[2a
=5	=5	=5	=5
0.D]	0.r	2d	2a]
.	.	2.f	2.dd
.	.	4e	4cc
.	.	4d	4b
.	.	4c	4a
.	.	1d	1b
=6	=6	=6	=6
0.F	0.r	1c	1.cc
.	.	1.f	.
.	.	.	2a
.	.	.	1a
.	.	2d	.
=7	=7	=7	=7
0G	0.r	1d	1.b
.	.	1.e	.
.	.	.	2g
1G	.	.	1g
.	.	2d	.
=8	=8	=8	=8
0A	0.r	1c	2r
.	.	.	1cc
.	.	2r	.
.	.	2c	2a
1G	.	2d	1b
.	.	2e	.
=9	=9	=9	=9
0F	0.r	2r	1a
.	.	1f	.
.	.	.	2r
.	.	2d	1dd
1r	.	1e	.
.	.	.	2cc
=10	=10	=10	=10
0.G	0.r	2d	2b
.	.	1e	2.g
.	.	.	4f
.	.	1c	2e
.	.	.	1d
.	.	2B	.
=11	=11	=11	=11
0.A	0.r	0c	1c
.	.	.	1r
.	.	1r	1cc
=12	=12	=12	=12
0.G	0.r	2d	2.b
.	.	2e	.
.	.	.	4cc
.	.	2d	2dd
.	.	2.B	2ee
.	.	.	2dd
.	.	4c	.
.	.	[2d	2b
=13	=13	=13	=13
0.F	0.r	4d]	2cc
.	.	4c	.
.	.	2.A	2.dd
.	.	4B	4cc
.	.	2.c	2a
.	.	.	2b
.	.	4B	.
.	.	2A	[2cc
=14	=14	=14	=14
0.E	0.r	2.G	4cc]
.	.	.	4b
.	.	.	2.g
.	.	4A	.
.	.	4B	.
.	.	4c	4a
.	.	2B	4b
.	.	.	4cc
.	.	2G	2b
.	.	[2B	2g
=15	=15	=15	=15
0.D	0.r	4B]	2.b
.	.	4c	.
.	.	1d	.
.	.	.	4cc
.	.	.	2dd
.	.	2B	1g
.	.	1A	.
.	.	.	2f
=16	=16	=16	=16
1r	0.r	2B	2g
.	.	2.c	2.a
1r	.	.	.
.	.	4B	4g
.	.	4A	4f
.	.	4G	4e
1D	.	1A	1f
=17	=17	=17	=17
2BB	0.r	2G	1r
2.C	.	2.A	.
.	.	.	1r
4BB	.	4G	.
4AA	.	4F#i	.
4GG	.	4E	.
1AA	.	1F#i	1a
=18	=18	=18	=18
2GG	0.r	2G	1b
2G	.	2r	.
2E	.	2G	1cc
2.F	.	2.A	.
.	.	.	2r
4E	.	4G	.
4D	.	[2c	2a
4C	.	.	.
=19	=19	=19	=19
1D	0.r	2c]	4b
.	.	.	4a
.	.	2B	4g
.	.	.	4f
2C	.	2c	2e
2BB	.	2.d	2.f
1GG	.	.	.
.	.	4c	4e
.	.	4B	4d
.	.	4A	4c
=20	=20	=20	=20
2r	0.r	1B	1d
2G	.	.	.
2E	.	1c	2e
2.F	.	.	2.d
.	.	1r	.
4E	.	.	4c
4D	.	.	[2c
4C	.	.	.
=21	=21	=21	=21
2D	0.r	1d	2c]
2GG	.	.	2B
2AA	.	2c	1c
2BB	.	1g	.
1C	.	.	2r
.	.	2e	2g
=22	=22	=22	=22
2r	0.r	1d	2a
2G	.	.	2b
2E	.	2.c	4cc
.	.	.	4b
2.F	.	.	4a
.	.	4B	4g
.	.	4A	1g
4E	.	4G	.
4D	.	[2A	.
4C	.	.	.
=23	=23	=23	=23
2D	0.r	2A]	2f
2GG	.	2G	2g
2AA	.	2c	4e
.	.	.	2f
2BB	.	2d	.
.	.	.	4g
2C	.	2e	2e
2D	.	2f	2d
=24	=24	=24	=24
0.r	0.r	2g	4c
.	.	.	2g
.	.	4e	.
.	.	2f	4a
.	.	.	2b
.	.	4g	.
.	.	2e	1cc
.	.	1d	.
.	.	.	2b
=25	=25	=25	=25
0.r	0.r	2c	2a
.	.	2B	1g
.	.	1A	.
.	.	.	2f
.	.	2G	2e
.	.	[2c	2c
=26	=26	=26	=26
2r	0.r	2c]	1d
2G	.	2B	.
2E	.	1c	2r
2.F	.	.	1cc
.	.	2r	.
4E	.	.	.
4D	.	2A	[2dd
4C	.	.	.
=27	=27	=27	=27
2D	0.r	1B	4dd]
.	.	.	4cc
2GG	.	.	2b
2AA	.	2c	2a
2BB	.	2B	1g
2C	.	1A	.
2D	.	.	2f#i
=28	=28	=28	=28
1E	0.r	0.G	0.g
1r	.	.	.
2r	.	.	.
2G	.	.	.
=29	=29	=29	=29
2E	0.r	1c	2r
2.F	.	.	2.a
.	.	1d	.
4E	.	.	4g
4D	.	.	4f
4C	.	.	4e
2D	.	1B	2f
2GG	.	.	2g
=30	=30	=30	=30
2AA	0.r	2c	2e
2BB	.	2d	2.g
2C	.	2e	.
.	.	.	4f
2D	.	2f	2d
2E	.	1c	2g
2F	.	.	2a
=31	=31	=31	=31
2r	0.r	1d	2b
2G	.	.	2.g
2E	.	2r	.
.	.	.	4f
2.F	.	2.a	1d
4E	.	4g	.
4D	.	4f	[2a
4C	.	4e	.
=32	=32	=32	=32
2D	0.r	2f	2a]
2GG	.	2g	2b
2AA	.	1.e	2cc
2BB	.	.	2dd
2C	.	.	[1ee
2D	.	2f	.
=33	=33	=33	=33
2E	0.r	1.g	2ee]
2F	.	.	2.dd
1G	.	.	.
.	.	.	4cc
.	.	4f	1cc
.	.	4e	.
1G	.	1d	.
.	.	.	2b
=34	=34	=34	=34
0.C	0.r	0c	0cc
.	.	1r	1r
=35	=35	=35	=35
1.C	[0.G	0c	0cc
4BB	.	.	.
4AA	.	.	.
1GG	.	1d	1b
=36	=36	=36	=36
1C	0.G_	1e	2.g
.	.	.	4a
2GG	.	2d	2b
2.C	.	2.e	2.cc
4D	.	4f	4b
4E	.	[2g	[2g
4F	.	.	.
=37	=37	=37	=37
2E	0.G]	4g]	4g]
.	.	4f	4a
2.G	.	4e	2.b-i
.	.	4d	.
.	.	2e	.
4F	.	.	4a
4E	.	1d	4g
4D	.	.	4f
1E	.	.	1g
.	.	2c#i	.
=38	=38	=38	=38
[0.D	[0.A	0d	0f#
.	.	1r	1f#i
=39	=39	=39	=39
0.D]	0.A]	0.d	2r
.	.	.	1f#i
.	.	.	2g
.	.	.	2a
.	.	.	2f#i
=40	=40	=40	=40
0C	[0.c	0e	1g
.	.	.	1g
2FF	.	1f	1a
2AA	.	.	.
=41	=41	=41	=41
2C	0.c]	2e	2g
2.AA	.	2.c	2.a
4BB	.	4B	4g
2C	.	4A	1g
.	.	4G	.
2AA	.	1A	.
2C	.	.	2f#i
=42	=42	=42	=42
2BB	[0.d	0.G	0g
1GG	.	.	.
2AA	.	.	.
2BB	.	.	1r
2C	.	.	.
=43	=43	=43	=43
1D	0.d_	0.F	0a
2D	.	.	.
2.D	.	.	.
.	.	.	1a
4C	.	.	.
4BB	.	.	.
4AA	.	.	.
=44	=44	=44	=44
1GG	0.d]	0.G	1b
1GG	.	.	2g
.	.	.	2.dd
1r	.	.	.
.	.	.	4cc
.	.	.	4b
.	.	.	4a
=45	=45	=45	=45
1G	[0.d	0.r	2g
.	.	.	2b
2F	.	.	2a
2.G	.	.	2.b
4A	.	.	4cc
2B	.	.	2dd
=46	=46	=46	=46
4A	0.d_	0.r	4cc
2G	.	.	2b
4F	.	.	4a
2.G	.	.	2.b
4F	.	.	4a
4G	.	.	4b
4A	.	.	4cc
[2G	.	.	[2b
=47	=47	=47	=47
2G]	0.d]	2.d	2b]
1D	.	.	1a
.	.	4e	.
.	.	2f	.
2GG	.	2.g	2.b
2.BB	.	.	.
.	.	4f	4cc
.	.	[2d	[2dd
4C	.	.	.
=48	=48	=48	=48
2D	0.r	2d]	4dd]
.	.	.	4b
2E	.	2c	2g
2D	.	2d	2f
1G	.	2B	2g
.	.	1A	1a
2F	.	.	.
=49	=49	=49	=49
2E	0.r	2G	2r
4D	.	2A	2f
4C	.	.	.
2BB	.	2G	2g
2C	.	1c	2e
1D	.	.	2f
.	.	2B	2g
=50	=50	=50	=50
1r	0.r	2c	2e
.	.	2.d	2.f
1r	.	.	.
.	.	4c	4e
.	.	4B	4d
.	.	4A	4c
1G	.	1B	1d
=51	=51	=51	=51
1.C	[0.e	0c	2r
.	.	.	1g
2.E	.	.	2e
.	.	1B	2.g
4F	.	.	.
2G	.	.	.
.	.	.	4a
=52	=52	=52	=52
2GG	0.e]	2r	2b
1AA	.	1E	2.cc
.	.	.	4b
2BB	.	2D	1b
1C	.	2E	.
.	.	2F	2a
=53	=53	=53	=53
2BB	0.d	2.G	2b
1GG	.	.	2.dd
.	.	4A	.
.	.	2B	.
.	.	.	4cc
2FF	.	1c	2a
1GG	.	.	2g
.	.	2B	2dd
=54	=54	=54	=54
2AA	[0.c	1c	2r
1C	.	.	1g
.	.	1A	.
2D	.	.	2f
1E	.	1G	1g
=55	=55	=55	=55
1.F	0.c_	2F	[0.a
.	.	2.A	.
.	.	4B	.
1.A	.	2c	.
.	.	1F	.
=56	=56	=56	=56
2c	0.c]	2r	1a]
2F	.	1f	.
1C	.	.	1g
.	.	2e	.
1F	.	[1f	1a
=57	=57	=57	=57
4D	0.d	2f]	2a
4C	.	.	.
4BB	.	2.d	2.b-
4AA	.	.	.
1GG	.	.	.
.	.	4c	4a
.	.	4B	4g
.	.	4A	4f
1r	.	1B	1g
=58	=58	=58	=58
0.AA	0.e	0A	1a
.	.	.	1.cc
.	.	[1c	.
.	.	.	4b
.	.	.	4a
=59	=59	=59	=59
0.C	0.e	1c]	0g
.	.	0G	.
.	.	.	2r
.	.	.	2cc
=60	=60	=60	=60
0.GG	0.d	2r	2b
.	.	1B	2.dd
.	.	.	4cc
.	.	2c	1cc
.	.	1G	.
.	.	.	2b
=61	=61	=61	=61
2r	0.c	1g	0cc
1C	.	.	.
.	.	2e	.
2D	.	2f	.
2E	.	[1g	1r
2F	.	.	.
=62	=62	=62	=62
1.G	[0.B	2g]	0dd
.	.	4f	.
.	.	4e	.
.	.	2d	.
4F	.	2G	.
4E	.	.	.
2D	.	2F	1dd
[2GG	.	[2G	.
=63	=63	=63	=63
4GG]	0.B]	4G]	2ee
4FF	.	4A	.
1GG	.	4B	1dd
.	.	4c	.
.	.	1.d	.
2AA	.	.	2cc
2BB	.	.	2b
2C	.	2e	4a
.	.	.	4g
=64	=64	=64	=64
1.D	[0.Al	2d	0.f#
.	.	4c	.
.	.	4B	.
.	.	2A	.
4C	.	1d	.
4BB	.	.	.
1AA	.	.	.
.	.	2d	.
=65	=65	=65	=65
0.Dl	0.A]	0.dl	0.f#l
!!LO:LB:i:g=z
=66||	=66||	=66||	=66||
*>B	*>B	*>B	*>B
*clefF4	*clefGv2	*clefGv2	*clefG2
*k[]	*k[]	*k[]	*k[]
*M3/1	*M3/1	*M3/1	*M3/1
*met(O)	*met(O)	*met(O)	*met(O)
!!section: Pleni sunt celi
!!!OMD: Pleni sunt celi
1G	0.r	0d	0.r
2F	.	.	.
1G	.	.	.
.	.	1e	.
2A	.	.	.
=67	=67	=67	=67
2B	0.r	1d	0g
2.G	.	.	.
.	.	2e	.
4F	.	.	.
2E	.	1g	.
1D	.	.	1a
.	.	2f	.
=68	=68	=68	=68
0.r	0.r	2e	1g
.	.	1c	.
.	.	.	2a
.	.	2e	1cc
.	.	1d	.
.	.	.	2b
=69	=69	=69	=69
1F	0.r	0c	1cc
2E	.	.	2r
1F	.	.	1a
.	.	1d	.
2G	.	.	2b
=70	=70	=70	=70
2A	0.r	1c	2cc
2.F	.	.	2.a
.	.	2A	.
4E	.	.	4g
2D	.	2B	2f
1C	.	1c	1e
=71	=71	=71	=71
0.r	0.r	2B	1d
.	.	1G	.
.	.	.	2e
.	.	2B	1g
.	.	1A	.
.	.	.	2f#i
=72	=72	=72	=72
1E	0.r	1G	2g
.	.	.	2r
2D	.	1r	2f
1E	.	.	1g
.	.	1c	.
2F	.	.	2a
=73	=73	=73	=73
2G	0.r	2B	2b
2.E	.	2.c	1g
4D	.	4B	.
2C	.	1A	2a
1BB	.	.	1b
.	.	2G	.
=74	=74	=74	=74
0.r	0.r	2A	2cc
.	.	2G	4b
.	.	.	2dd
.	.	2A	.
.	.	.	4cc
.	.	2c	1a
.	.	1B	.
.	.	.	2g#i
=75	=75	=75	=75
1D	0.r	0A	1a
2C	.	.	1r
1D	.	.	.
.	.	1d	1a
2E	.	.	.
=76	=76	=76	=76
2F	0.r	2r	0d
2.D	.	1f	.
4C	.	.	.
2BB	.	1d	.
1AA	.	.	1e
.	.	2c	.
=77	=77	=77	=77
0.r	0.r	2B	2d
.	.	2G	1g
.	.	1d	.
.	.	.	2f
.	.	2c	2e
.	.	4B	2d
.	.	4A	.
=78	=78	=78	=78
1C	0.r	2G	2g
.	.	2c	2a
2BB	.	2d	2b
1C	.	4c	1g
.	.	4B	.
.	.	1A	.
2D	.	.	2f
=79	=79	=79	=79
2E	0.r	1G	2g
2.C	.	.	1e
.	.	2c	.
4BB	.	.	.
2AA	.	1c	2c
1GG	.	.	1d
.	.	2B	.
=80	=80	=80	=80
1r	0.r	2G	0B
.	.	2.d	.
1GG	.	.	.
.	.	4c	.
.	.	2G	.
1AA	.	2E	1c
.	.	2F	.
=81	=81	=81	=81
*	*	*	*M3/1
*	*	*	*met(3)
1GG	0.r	1G	3B
.	.	.	3c
.	.	.	3d
2C	.	1r	3e
.	.	.	6f
2E	.	.	6e
.	.	.	6d
.	.	.	6c
1D	.	1d	3d
.	.	.	3A
.	.	.	3B
=82	=82	=82	=82
*	*	*	*M3/1
*	*	*	*met(O)
0.C	0.r	2.e	0c
.	.	4f	.
.	.	2g	.
.	.	2.a	.
.	.	.	1r
.	.	4g	.
.	.	[2g	.
=83	=83	=83	=83
0.r	0.r	2g]	1d
.	.	2f	.
.	.	2g	2.e
.	.	1e	.
.	.	.	4f
.	.	.	2g
.	.	2c	[2a
=84	=84	=84	=84
1r	0.r	2d	4a]
.	.	.	4g
.	.	2B	1g
1D	.	1A	.
.	.	.	2f
2.E	.	1G	2g
.	.	.	[2e
4F	.	.	.
=85	=85	=85	=85
2G	0.r	1r	2e]
2.A	.	.	2c
.	.	1r	2d
4G	.	.	.
1G	.	.	2B
.	.	1c	1A
2F	.	.	.
=86	=86	=86	=86
2G	0.r	1B	1G
1E	.	.	.
.	.	2G	1r
2C	.	2.A	.
2D	.	.	1r
.	.	4G	.
2BB	.	[2G	.
=87	=87	=87	=87
1AA	0.r	2G]	1c
.	.	2F#i	.
1GG	.	1G	2B
.	.	.	2.d
1r	.	1r	.
.	.	.	4e
.	.	.	4f
.	.	.	4g
=88	=88	=88	=88
0.r	0.r	1c	2e
.	.	.	1g
.	.	2B	.
.	.	2.d	2f
.	.	.	2.a
.	.	4e	.
.	.	4f	.
.	.	4g	4b
=89	=89	=89	=89
0.r	0.r	2e	2cc
.	.	1g	2b
.	.	.	1dd
.	.	2f	.
.	.	2.a	2cc
.	.	.	[2a
.	.	4g	.
=90	=90	=90	=90
0.r	0.r	2f	4a]
.	.	.	4b
.	.	2e	2cc
.	.	1g	2b
.	.	.	2.dd
.	.	2f	.
.	.	.	4cc
.	.	[2d	2b
=91	=91	=91	=91
0.r	0.r	4d]	1a
.	.	4e	.
.	.	2f	.
.	.	2e	2.g
.	.	2.g	.
.	.	.	4a
.	.	.	2b
.	.	4f	.
.	.	2e	[2cc
=92	=92	=92	=92
1G	0.r	1d	2cc]
.	.	.	2b
2A	.	2c	1cc
2F	.	1f	.
1G	.	.	1r
.	.	2e	.
=93	=93	=93	=93
1r	0.r	0.f	1.a
1.F	.	.	.
.	.	.	2a
.	.	.	1a
2F	.	.	.
=94	=94	=94	=94
2.F	0.r	0.r	0.a
4E	.	.	.
4D	.	.	.
4C	.	.	.
2.D	.	.	.
4C	.	.	.
4BB	.	.	.
4AA	.	.	.
=95	=95	=95	=95
2GG	0.r	0.r	0b-
2D	.	.	.
2E	.	.	.
1G	.	.	.
.	.	.	1a
2F	.	.	.
=96	=96	=96	=96
2G	0.r	0.r	1g
1B-	.	.	.
.	.	.	1f
2A	.	.	.
2G	.	.	1e
[2c	.	.	.
=97	=97	=97	=97
2c]	0.r	0.r	1d
2B-i	.	.	.
2A	.	.	2c
2F	.	.	1d
2.G	.	.	.
.	.	.	2e
4F	.	.	.
=98	=98	=98	=98
2D	0.r	0.r	2.f
2.A	.	.	.
.	.	.	4e
.	.	.	2c
4G	.	.	.
2E	.	.	2.g
2.G	.	.	.
.	.	.	4f
.	.	.	2d
4F	.	.	.
=99	=99	=99	=99
2D	0.r	0.r	2.a
2.A	.	.	.
.	.	.	4g
.	.	.	2e
4G	.	.	.
2E	.	.	2cc
2.G	.	.	2b
.	.	.	[2dd
4F	.	.	.
=100	=100	=100	=100
2D	0.r	0.r	4dd]
.	.	.	4cc
2.A	.	.	2a
.	.	.	2.cc
4G	.	.	.
2E	.	.	.
.	.	.	4b
4G	.	.	2.g
4F	.	.	.
4E	.	.	.
4D	.	.	4f
=101	=101	=101	=101
2A	0.r	0.r	4e
.	.	.	4d
2.G	.	.	2.e
4D	.	.	4d
2F	.	.	1d
1E	.	.	.
.	.	.	2c#i
=102	=102	=102	=102
1D	0.r	0f	0d
1r	.	.	.
1A	.	1e	2r
.	.	.	2c
=103	=103	=103	=103
2B-	0.r	2d	2d
2A	.	2.f	2.c
1F	.	.	.
.	.	4e	8dL
.	.	.	8eJ
.	.	1c	2.f
1G	.	.	.
.	.	.	8eL
.	.	.	8dJ
.	.	2B	[2e
=104	=104	=104	=104
2C	0.r	2c	2e]
2D	.	2F	2f
2BB	.	2G	2d
2C	.	2E	2e
2AA	.	2F	2c
2BB	.	2D	2r
=105	=105	=105	=105
1GG	0.r	2E	1g
.	.	2r	.
1FF	.	2F	2a
.	.	4G	4b
.	.	2A	2cc
1r	.	.	.
.	.	4B	4b
.	.	[2c	2a
=106	=106	=106	=106
2C	0.r	2c]	1g
4D	.	2B	.
2E	.	.	.
.	.	2A	2a
4F	.	.	.
2G	.	2G	2b
4F	.	4A	4cc
4D	.	2B	2dd
2E	.	.	.
.	.	4c	4cc
=107	=107	=107	=107
2D	0.r	2d	2b
4E	.	2c	2.a
2F	.	.	.
.	.	2B	.
4G	.	.	4g
2A	.	2c	1cc
1G	.	1d	.
.	.	.	2b
=108	=108	=108	=108
1C	0.r	2.c	0.cc
.	.	4d	.
2r	.	2e	.
2.A	.	2.f	.
4G	.	4e	.
4F	.	4d	.
4E	.	4c	.
=109	=109	=109	=109
2D	0.r	2B	0.r
2C	.	4c	.
.	.	2e	.
2E	.	.	.
.	.	4d	.
2F	.	1c	.
1D	.	.	.
.	.	2B	.
=110	=110	=110	=110
0.Cl	0.r	0.cl	0.ccl
!!LO:LB:i:g=z
=111||	=111||	=111||	=111||
*>C	*>C	*>C	*>C
*clefF4	*clefGv2	*clefGv2	*clefG2
*k[]	*k[]	*k[]	*k[]
*M2/1	*M2/1	*M2/1	*M2/1
*met(C|)	*met(C|)	*met(C|)	*met(C|)
!!section: Osanna
!!!OMD: Osanna
0F	[0A	[0c	0cc
=112	=112	=112	=112
1F	0A_	0c]	[0cc
[1F	.	.	.
=113	=113	=113	=113
2F]	0A_	0f	1cc]
2E	.	.	.
2F	.	.	1a
2D	.	.	.
=114	=114	=114	=114
1AA	0A_	1e	1.a
1D	.	[1f	.
.	.	.	2b
=115	=115	=115	=115
1r	0A_	1f]	1cc
1D	.	1d	[1dd
=116	=116	=116	=116
0AA	0A]	0e	1dd]
.	.	.	1cc#i
=117	=117	=117	=117
1BB	[0d	1d	0dd
[1GG	.	[1B	.
=118	=118	=118	=118
1GG]	0d_	1B]	1r
[1G	.	1G	[1dd
=119	=119	=119	=119
1G]	0d_	0A	2dd]
.	.	.	2cc
1F#i	.	.	1a
=120	=120	=120	=120
2G	0d_	0G	1b
1B	.	.	.
.	.	.	[1g
2A	.	.	.
=121	=121	=121	=121
2G	0d_	1r	1g]
2F	.	.	.
1G	.	[1g	1b
=122	=122	=122	=122
0D	0d]	1g]	1.a
.	.	1f	.
.	.	.	2g
=123	=123	=123	=123
1GG	[0d	1g	1b
[1D	.	[1f	[1a
=124	=124	=124	=124
2D]	0d_	2f]	2a]
2E	.	2e	2g
2F	.	2d	2f
2G	.	2c	2e
=125	=125	=125	=125
0D	0d_	1f	1a
.	.	2e	2g
.	.	[2d	[2f
=126	=126	=126	=126
0G	0d_	2d]	2f]
.	.	2c	2e
.	.	1B	2d
.	.	.	[2g
=127	=127	=127	=127
0D	0d_	0A	2g]
.	.	.	4f#i
.	.	.	4e
.	.	.	1f#i
=128	=128	=128	=128
1r	0d]	0G	[0g
1GG	.	.	.
=129	=129	=129	=129
1.C	[0c	1r	0g_
.	.	1G	.
2D	.	.	.
=130	=130	=130	=130
2E	0c_	2c	0g]
2F	.	2d	.
1E	.	2e	.
.	.	2f	.
=131	=131	=131	=131
1A	0c_	2.e	0r
.	.	4f	.
2B	.	2g	.
[2c	.	[2a	.
=132	=132	=132	=132
4c]	0c]	4a]	0a
4B	.	4g	.
4A	.	4f#i	.
4G	.	4e	.
1A	.	1f#i	.
=133	=133	=133	=133
[0G	[0d	0g	0b
=134	=134	=134	=134
0G]	0d_	1.g	1.b
.	.	4f	4a
.	.	4e	4g
=135	=135	=135	=135
0D	0d_	0f	0a
=136	=136	=136	=136
0GG	0d]	0g	0b
=137	=137	=137	=137
[0AA	[0c	1r	1.cc
.	.	[1c	.
.	.	.	2b
=138	=138	=138	=138
1AA]	0c_	2c]	2a
.	.	2B	2g
[1C	.	2A	1a
.	.	2G	.
=139	=139	=139	=139
2C]	0c_	1A	0e
2BB	.	.	.
2AA	.	[1G	.
2GG	.	.	.
=140	=140	=140	=140
0AA	0c]	1G]	0c
.	.	1F#i	.
=141	=141	=141	=141
0GG	[0B	[0G	1r
.	.	.	1d
=142	=142	=142	=142
0r	0B_	0G_	1e
.	.	.	1d
=143	=143	=143	=143
[0GG	0B_	0G_	1.g
.	.	.	4f
.	.	.	4e
=144	=144	=144	=144
0GG]	0B]	0G]	[0d
=145	=145	=145	=145
1.G	0r	0r	1d]
.	.	.	1e
4F	.	.	.
4E	.	.	.
=146	=146	=146	=146
1D	0r	0r	1f
1E	.	.	1g
=147	=147	=147	=147
1F	0r	0r	2f
.	.	.	1d
1G	.	.	.
.	.	.	2e
=148	=148	=148	=148
2F	0r	0r	2f
1D	.	.	2a
.	.	.	1g
2E	.	.	.
=149	=149	=149	=149
2F	0r	1r	1c
2A	.	.	.
1G	.	1B	1d
=150	=150	=150	=150
1C	0r	2c	1c
.	.	2e	.
1D	.	1d	1f
=151	=151	=151	=151
1C	0r	1G	1e
1F	.	1A	1f
=152	=152	=152	=152
1E	0r	1G	1g
1F	.	1c	1c
=153	=153	=153	=153
1G	0r	1B	2r
.	.	.	2d
1C	.	1c	1e
=154	=154	=154	=154
2r	0r	1d	1f
2D	.	.	.
1E	.	1G	1g
=155	=155	=155	=155
1F	0r	2r	1c
.	.	2A	.
1G	.	1B	2r
.	.	.	2d
=156	=156	=156	=156
1C	0r	1c	1e
2r	.	1d	1f
2D	.	.	.
=157	=157	=157	=157
1E	0r	1G	1g
1F	.	2r	2f
.	.	2A	[2f
=158	=158	=158	=158
1G	0r	1B	2f]
.	.	.	2e
2F	.	1c	[1f
[2F	.	.	.
=159	=159	=159	=159
2F]	0r	1d	1f]
2D	.	.	.
2E	.	2c	1g
2C	.	[2c	.
=160	=160	=160	=160
1D	0r	2c]	2f
.	.	2B	2d
1C	.	2c	1e
.	.	4B	.
.	.	4A	.
=161	=161	=161	=161
0G	0r	0B	0d
=162	=162	=162	=162
1r	0r	1r	1r
1C	.	1c	1e
=163	=163	=163	=163
0G	0r	1.B	1d
.	.	.	[1g
.	.	4c	.
.	.	4d	.
=164	=164	=164	=164
1C	0r	2e	2g]
.	.	2f	2a
2r	.	1d	1b
2G	.	.	.
=165	=165	=165	=165
1A	0r	2r	1cc
.	.	2c	.
1B	.	1d	1r
=166	=166	=166	=166
1c	0r	1e	1g
2F	.	1f	1a
[2c	.	.	.
=167	=167	=167	=167
2c]	0r	2e	2g
2A	.	2f	2.cc
1G	.	1g	.
.	.	.	4b
.	.	.	[2b
=168	=168	=168	=168
2A	0r	2e	4b]
.	.	.	4a
2c	.	1e	1a
1B	.	.	.
.	.	2d	2g#i
=169	=169	=169	=169
[0A	[0A	[0e	0a
=170	=170	=170	=170
1A]	0A_	1e]	0r
1D	.	1d	.
=171	=171	=171	=171
0D	0A_	1.f	0a
.	.	4e	.
.	.	4d	.
=172	=172	=172	=172
1r	0A]	2e	0a
.	.	1g	.
1D	.	.	.
.	.	2f#i	.
=173	=173	=173	=173
[0GG	[0G	1.g	1b
.	.	.	2g
.	.	4f	[2b
.	.	4e	.
=174	=174	=174	=174
0GG]	0G_	4d	4b]
.	.	4c	4cc
.	.	4B	2.dd
.	.	4A	.
.	.	2G	.
.	.	.	4cc
.	.	2r	4b
.	.	.	4a
=175	=175	=175	=175
1r	0G_	2.g	2b
.	.	.	2.g
.	.	4f	.
[1C	.	4e	.
.	.	4d	4f
.	.	[2c	4e
.	.	.	4d
=176	=176	=176	=176
1C]	0G]	2c]	2c
.	.	2e	1cc
1GG	.	1d	.
.	.	.	2b
=177	=177	=177	=177
1r	[0A	[0c	0cc
1FF	.	.	.
=178	=178	=178	=178
1.AA	0A_	0c]	0r
2BB	.	.	.
=179	=179	=179	=179
2C	0A_	0r	[0a
2.D	.	.	.
4E	.	.	.
[2F	.	.	.
=180	=180	=180	=180
4F]	0A]	0F	1a]
4E	.	.	.
4D	.	.	.
4C	.	.	.
1D	.	.	2g
.	.	.	2f
=181	=181	=181	=181
[0C	[0c	[0G	[0e
=182	=182	=182	=182
0C]	0c_	0G]	0e]
=183	=183	=183	=183
[0AA	0c_	1.A	[0e
.	.	4G	.
.	.	4F	.
=184	=184	=184	=184
0AA]	0c]	1E	0e]
.	.	1A	.
=185	=185	=185	=185
1.D	[0A	1F	1.f
.	.	1D	.
4C	.	.	4e
4BB	.	.	4d
=186	=186	=186	=186
1AA	0A_	0A	1c
[1D	.	.	1d
=187	=187	=187	=187
1D]	0A_	0r	0e
1C	.	.	.
=188	=188	=188	=188
0D	0A]	1.d	0f
.	.	2c	.
=189	=189	=189	=189
0GG	[0G	2B	1.g
.	.	2A	.
.	.	1B	.
.	.	.	2f
=190	=190	=190	=190
1r	0G_	1G	2e
.	.	.	2d
[1G	.	[1B	1e
=191	=191	=191	=191
2G]	0G_	2B]	1d
2F	.	2A	.
2E	.	[1d	[1g
2D	.	.	.
=192	=192	=192	=192
0E	0G]	1d]	0g]
.	.	1c#i	.
=193	=193	=193	=193
[0D	[0A	1d	1f
.	.	[1f	[1a
=194	=194	=194	=194
0D]	0A_	1f]	1a]
.	.	[1d	1f
=195	=195	=195	=195
1r	0A_	1d]	0e
1AA	.	1c#i	.
=196	=196	=196	=196
[0D	0A]	1.d	1d
.	.	.	[1f
.	.	4c	.
.	.	4B	.
=197	=197	=197	=197
0D]	0r	1A	2f]
.	.	.	2g
.	.	[1d	1a
=198	=198	=198	=198
0r	0r	2d]	1b
.	.	2e	.
.	.	2f	2a
.	.	2g	[2dd
=199	=199	=199	=199
1A	0r	1e	2dd]
.	.	.	2cc
1B-	.	2r	1dd
.	.	2d	.
=200	=200	=200	=200
2A	0r	2e	2cc
2B-i	.	2d	2dd
2A	.	2e	2cc
2B-i	.	2d	2dd
=201	=201	=201	=201
2A	0r	2e	2cc
1B-i	.	2d	1dd
.	.	[1f	.
4A	.	.	4cc
4G	.	.	4b
=202	=202	=202	=202
2F	0r	2f]	2a
2G	.	4e	4g
.	.	4d	4f
1A	.	1c	1e
=203	=203	=203	=203
2F	[0dl	2d	1d
1G	.	1B	.
.	.	.	1g
4F	.	4A	.
4E	.	4G	.
=204	=204	=204	=204
2D	0d_	1A	1f
2C	.	.	.
1D	.	1F	[1a
=205	=205	=205	=205
0GG	0d_	1G	2a]
.	.	.	2g
.	.	1B-i	[1g
=206	=206	=206	=206
0D	0d_	0A	1g]
.	.	.	1f#i
=207	=207	=207	=207
0GGl	0d]	0Gl	0gl
!!LO:LB:i:g=z
!!LO:TX:rj:i:t=fine
=208||	=208||	=208||	=208||
*>D	*>D	*>D	*>D
*clefF4	*clefGv2	*clefGv2	*clefG2
*k[]	*k[]	*k[]	*k[]
*M2/1	*M2/1	*M2/1	*M2/1
*met(C|)	*met(C|)	*met(C|)	*met(C|)
!!section: Benedictus
!!!OMD: Benedictus
0G	0r	[0G	[0g
=209	=209	=209	=209
1C	0r	0G]	1g]
1G	.	.	1b
=210	=210	=210	=210
1F	0r	1A	1a
2E	.	1B	2g
2D	.	.	2f
=211	=211	=211	=211
0C	0r	0c	1e
.	.	.	[1g
=212	=212	=212	=212
0BB	0r	0d	2g]
.	.	.	2f
.	.	.	1d
=213	=213	=213	=213
0C	0r	1e	0c
.	.	[1g	.
=214	=214	=214	=214
0GG	0r	2g]	0B
.	.	2f	.
.	.	1d	.
=215	=215	=215	=215
0AA	0r	0c	1r
.	.	.	1c
=216	=216	=216	=216
0GG	0r	0B	1.d
.	.	.	4c
.	.	.	4d
=217	=217	=217	=217
0C	0r	1r	0e
.	.	1c	.
=218	=218	=218	=218
0r	0r	0d	1r
.	.	.	1f
=219	=219	=219	=219
0r	0r	0e	1.g
.	.	.	4f
.	.	.	4g
=220	=220	=220	=220
0r	0r	1r	0a
.	.	1f	.
=221	=221	=221	=221
0r	0r	1.g	1r
.	.	.	1b
.	.	4f	.
.	.	4g	.
=222	=222	=222	=222
0r	0r	0a	1.cc
.	.	.	4b
.	.	.	4cc
=223	=223	=223	=223
0r	0r	1r	0dd
.	.	1d	.
=224	=224	=224	=224
0r	0r	1.e	0g
.	.	4d	.
.	.	4e	.
=225	=225	=225	=225
0r	0r	1f	1r
.	.	2e	1cc
.	.	2f	.
=226	=226	=226	=226
0r	0r	1g	1b
.	.	1g	[1g
=227	=227	=227	=227
0r	0r	0c	2g]
.	.	.	2f
.	.	.	1e
=228	=228	=228	=228
0r	0r	1r	0d
.	.	1f	.
=229	=229	=229	=229
0r	0r	1e	0c
.	.	[1c	.
=230	=230	=230	=230
0r	0r	2c]	1e
.	.	2B	.
.	.	1A	1f
=231	=231	=231	=231
0r	0r	0G	1g
.	.	.	2e
.	.	.	[2g
=232	=232	=232	=232
0r	0r	1B	2g]
.	.	.	2f
.	.	1c	2e
.	.	.	4d
.	.	.	4c
=233	=233	=233	=233
0G	0r	1d	0B
.	.	2B	.
.	.	[2d	.
=234	=234	=234	=234
0G	0r	2d]	0r
.	.	2c	.
.	.	2B	.
.	.	4A	.
.	.	4G	.
=235	=235	=235	=235
1A	0r	1F	0r
[1B	.	2G	.
.	.	[2B	.
=236	=236	=236	=236
2B]	0r	4B]	0r
.	.	4c	.
4A	.	2d	.
4G	.	.	.
2B	.	2G	.
[2A	.	[2c	.
=237	=237	=237	=237
2A]	0r	2c]	0r
1G	.	2B	.
.	.	1A	.
2F	.	.	.
=238	=238	=238	=238
2G	0r	2G	1r
2E	.	1c	.
1D	.	.	1d
.	.	2B	.
=239	=239	=239	=239
1C	0r	4c	1e
.	.	4B	.
.	.	4A	.
.	.	4G	.
1r	.	1A	1f
=240	=240	=240	=240
1GG	0r	1G	1g
1AA	.	1r	2e
.	.	.	[2f
=241	=241	=241	=241
1BB	0r	0r	2f]
.	.	.	2g
1C	.	.	1e
=242	=242	=242	=242
2AA	0r	0r	1f
1BB	.	.	.
.	.	.	1g
2C	.	.	.
=243	=243	=243	=243
1AA	0r	0r	1a
1BB	.	.	1d
=244	=244	=244	=244
1C	0r	0r	1r
1D	.	.	1a
=245	=245	=245	=245
0r	0r	1d	1b
.	.	1e	1cc
=246	=246	=246	=246
0r	0r	1f	1dd
.	.	1g	2b
.	.	.	[2cc
=247	=247	=247	=247
0r	0r	2e	2cc]
.	.	1f	2dd
.	.	.	1b
.	.	2g	.
=248	=248	=248	=248
0r	0r	1e	1ee
.	.	1f	2cc
.	.	.	[2dd
=249	=249	=249	=249
0r	0r	1g	2dd]
.	.	.	2b
.	.	1a	2cc
.	.	.	2a
=250	=250	=250	=250
0r	0r	2g	2b
.	.	2d	1dd
.	.	1e	.
.	.	.	2cc#i
=251	=251	=251	=251
0D	0r	1d	0dd
.	.	1r	.
=252	=252	=252	=252
1G	0r	0d	0r
2F	.	.	.
[2G	.	.	.
=253	=253	=253	=253
2G]	0r	1g	0r
2B	.	.	.
2A	.	2f	.
2G	.	2g	.
=254	=254	=254	=254
1B	0r	2d	0r
.	.	1g	.
1A	.	.	.
.	.	2f	.
=255	=255	=255	=255
2G	0r	2e	0r
1c	.	2c	.
.	.	1d	.
2B	.	.	.
=256	=256	=256	=256
2A	0r	2c	0r
2F	.	2.f	.
1G	.	.	.
.	.	4e	.
.	.	[2e	.
=257	=257	=257	=257
1D	0r	4e]	0r
.	.	4d	.
.	.	1d	.
1E	.	.	.
.	.	2c#i	.
=258	=258	=258	=258
0D	0r	1d	1.dd
.	.	1r	.
.	.	.	4cc
.	.	.	4b
=259	=259	=259	=259
1.d	0r	1.f	1a
.	.	.	1b
4c	.	4e	.
4B	.	4d	.
=260	=260	=260	=260
1A	0r	2e	1cc
.	.	1f	.
2F	.	.	2a
[2G	.	2d	[2b
=261	=261	=261	=261
2G]	0r	1e	2b]
2E	.	.	2g
1F	.	2c	1a
.	.	[2d	.
=262	=262	=262	=262
1D	0r	2d]	2b
.	.	2c	1a
1E	.	1B	.
.	.	.	2g#i
=263	=263	=263	=263
1F	0r	2A	1a
.	.	2.c	.
2E	.	.	1r
.	.	4B	.
[2D	.	[2B	.
=264	=264	=264	=264
2D]	0r	4B]	0r
.	.	4A	.
2C	.	1A	.
1BB	.	.	.
.	.	2G#i	.
=265	=265	=265	=265
1AA	0r	2.A	2a
.	.	.	2.cc
.	.	4B	.
1r	.	2c	.
.	.	.	4b
.	.	[2d	[2b
=266	=266	=266	=266
0r	0r	4d]	4b]
.	.	4c	4a
.	.	4B	1a
.	.	4A	.
.	.	1B	.
.	.	.	2g#i
=267	=267	=267	=267
2.D	0r	1A	2.a
4E	.	.	4g
2F	.	1r	2f
[2G	.	.	[2e
=268	=268	=268	=268
4G]	0r	0r	4e]
4F	.	.	4d
4E	.	.	1d
4D	.	.	.
1E	.	.	.
.	.	.	2c#i
=269	=269	=269	=269
1D	0r	2.a	1d
.	.	4g	.
1A	.	2f	1r
.	.	[2e	.
=270	=270	=270	=270
2G	0r	4e]	0r
.	.	4d	.
2F	.	1d	.
1E	.	.	.
.	.	2c#i	.
=271	=271	=271	=271
1D	0r	1.d	1.f
1r	.	.	.
.	.	4c	4e
.	.	4B	4d
=272	=272	=272	=272
2.A	0r	1c	1e
4G	.	.	.
2F	.	1d	2f
[2E	.	.	2g
=273	=273	=273	=273
4E]	0r	2c	2a
4D	.	.	.
1D	.	2d	1b
.	.	2B	.
2C	.	2c	[2g
=274	=274	=274	=274
1D	0r	1A	2g]
.	.	.	2f#i
1r	.	1G	1g
=275	=275	=275	=275
1D	0r	2.F	0r
.	.	4G	.
2C	.	2A	.
2D	.	[2B-i	.
=276	=276	=276	=276
2BB	0r	2B-]	0r
2C	.	1G	.
1AA	.	.	.
.	.	2F#i	.
=277	=277	=277	=277
1GG	0r	0G	1r
1r	.	.	1g
=278	=278	=278	=278
2.F	0r	1r	2.a
4G	.	.	4b
2A	.	1f	2cc
[2B-	.	.	[2dd
=279	=279	=279	=279
2B-]	0r	1g	2dd]
1G	.	.	2b
.	.	2e	2g
2F	.	2f	[2cc
=280	=280	=280	=280
1G	0r	1d	2cc]
.	.	.	2b
1r	.	[1c	1cc
=281	=281	=281	=281
1F	0r	2c]	2r
.	.	2.d	2a
1G	.	.	2b
.	.	4c	.
.	.	4B	[2g
.	.	4A	.
=282	=282	=282	=282
2E	0r	2G	2g]
2F	.	1c	2.a
1D	.	.	.
.	.	.	4g
.	.	2B	2f
=283	=283	=283	=283
0C	0r	1c	1e
.	.	1e	2.g
.	.	.	4f
=284	=284	=284	=284
0BB	0r	0d	2g
.	.	.	1f
.	.	.	4e
.	.	.	4d
=285	=285	=285	=285
1C	0r	1.c	1.e
1r	.	.	.
.	.	4B	4d
.	.	4A	4c
=286	=286	=286	=286
1GG	0r	1B	1d
1AA	.	1c	2c
.	.	.	[2g
=287	=287	=287	=287
1r	0r	0d	2g]
.	.	.	2a
1GG	.	.	1b
=288	=288	=288	=288
1AA	0r	1c	1cc
1BB	.	1d	1r
=289	=289	=289	=289
1r	0r	1e	0g
1GG	.	[1e	.
=290	=290	=290	=290
1AA	0r	2e]	0f
.	.	4d	.
.	.	4c	.
1BB	.	1d	.
=291	=291	=291	=291
1C	0r	1G	1.e
1r	.	1A	.
.	.	.	4d
.	.	.	4c
=292	=292	=292	=292
1GG	0r	1B	1d
1AA	.	1c	1c
=293	=293	=293	=293
1BB	0r	1d	1r
1C	.	1e	1g
=294	=294	=294	=294
1D	0r	1f	1f
1r	.	1g	1e
=295	=295	=295	=295
1GG	0r	1r	1g
1AA	.	1c	2e
.	.	.	[2f
=296	=296	=296	=296
1BB	0r	1d	2f]
.	.	.	2g
1C	.	2c	2a
.	.	2B	[2g
=297	=297	=297	=297
1D	0r	1A	2g]
.	.	.	2f
1E	.	2G	2g
.	.	[2c	2a
=298	=298	=298	=298
1r	0r	2c]	2g
.	.	2e	1cc
1GG	.	1d	.
.	.	.	2b
=299	=299	=299	=299
1AA	0r	1c	2cc
.	.	.	2dd
1BB	.	2r	1b
.	.	2d	.
=300	=300	=300	=300
1C	0r	2e	1r
.	.	1g	.
1D	.	.	1a
.	.	2f	.
=301	=301	=301	=301
1E	0r	1g	1g
1F	.	2c	1a
.	.	[2f	.
=302	=302	=302	=302
1r	0r	4f]	1.b
.	.	4e	.
.	.	4d	.
.	.	4c	.
1GG	.	1d	.
.	.	.	4a
.	.	.	4b
=303	=303	=303	=303
1AA	0r	1c	1cc
1BB	.	1d	2b
.	.	.	2dd
=304	=304	=304	=304
1C	0r	1e	2cc
.	.	.	4b
.	.	.	4a
1D	.	2d	2b
.	.	2c	[2a
=305	=305	=305	=305
1E	0r	1B	2a]
.	.	.	2g
1F	.	1A	1a
=306	=306	=306	=306
1G	0r	1r	1b
1r	.	1A	1cc
=307	=307	=307	=307
1GG	0r	1B	1dd
1AA	.	1c	1r
=308	=308	=308	=308
1BB	0r	1d	1d
1C	.	1r	1e
=309	=309	=309	=309
1D	0r	1r	1f
1E	.	1G	2g
.	.	.	2b
=310	=310	=310	=310
1F	0r	1A	2a
.	.	.	2cc
1G	.	1B	2b
.	.	.	[2g
=311	=311	=311	=311
0A	0r	0c	2g]
.	.	.	4f
.	.	.	4e
.	.	.	1f
=312	=312	=312	=312
[0G	0r	1.d	4g
.	.	.	4a
.	.	.	4b
.	.	.	4cc
.	.	.	2dd
.	.	2e	2g
=313	=313	=313	=313
0G_	0r	2d	2dd
.	.	1g	4cc
.	.	.	4dd
.	.	.	2ee
.	.	2f	[2dd
=314	=314	=314	=314
0G]	0r	2g	2dd]
.	.	2e	1cc
.	.	1d	.
.	.	.	2b
=315	=315	=315	=315
0Cl	0r	0cl	0ccl
!!LO:TX:i:Y=40:rj:t=Osanna ut supra
=||	=||	=||	=||
*-	*-	*-	*-
!!!RDF**kern: l=long note in original notation
!!!RDF**kern: i=editorial accidental
!!!ENC:	Jesse Rodin 8/14/2013
!!!END:	2013/08/14/
!!!EED:	Jesse Rodin
!!!EEV:	2013/12/30/
!!!ONB:	Translated from MusicXML and edited on 2013/08/14/ by Craig Sapp
!!muse2ps: C^@{COM}\n@{SMS}, @{folio}^85,85,85,100Q16
